public/assets/img/material-icons/media_bluetooth_off.svg

<svg height="24" viewBox="0 0 24 24" width="24" xmlns="http://www.w3.org/2000/svg"><path d="m9 6.17v-3.17h6v4h-4v1.17zm10.42 8.83 2.58 2.57-.8.8-6.78-6.78.8-.8 2.75 2.75v-4.54h.6l3.43 3.43zm-.25-1.45 1.13-1.13-1.13-1.13zm2.02 7.64-1.41 1.41-3.98-3.98-.58.58-.85-.85.58-.58-3.95-3.94v3.17c0 2.21-1.78 4-3.99 4s-4.01-1.79-4.01-4 1.79-4 4.01-4c.73 0 1.41.21 2 .55v-1.72l-7.62-7.61 1.41-1.41z"/></svg>

<svg xmlns="http://www.w3.org/2000/svg" width="24" height="24" viewBox="0 0 24 24"><path d="M9 6.17V3h6v4h-4v1.17l-2-2zM19.42 15 22 17.57l-.8.8-6.78-6.78.8-.8 2.75 2.75V9h.6L22 12.43 19.42 15zm-.25-1.45 1.13-1.13-1.13-1.13v2.26zm2.02 7.64-1.41 1.41-3.98-3.98-.58.58-.85-.85.58-.58L11 13.83V17c0 2.21-1.78 4-3.99 4S3 19.21 3 17s1.79-4 4.01-4c.73 0 1.41.21 2 .55v-1.72L1.39 4.22 2.8 2.81l18.39 18.38z"/></svg>
